src/assets/icons/sort-numeric-down-alt.svg

<svg width="14" height="14" viewBox="0 0 14 14" fill="none" xmlns="http://www.w3.org/2000/svg">
<g id="sort-numeric-down-alt">
<g clip-path="url(#clip0_156_4670)">
<g id="Vector">
<path d="M5.61841 10.5849L4.51647 11.6868V0.677419C4.51647 0.303484 4.21299 0 3.83905 0C3.46512 0 3.16163 0.303484 3.16163 0.677419V11.6868L2.0597 10.5849C1.79505 10.3203 1.36602 10.3203 1.10138 10.5849C0.836732 10.8495 0.836732 11.2786 1.10138 11.5432L3.35944 13.8013C3.42176 13.8636 3.49673 13.9133 3.57983 13.9476C3.66293 13.9819 3.75054 14 3.83905 14C3.92757 14 4.01518 13.9819 4.09828 13.9476C4.18138 13.9133 4.25634 13.8636 4.31867 13.8013L6.57673 11.5432C6.84138 11.2786 6.84138 10.8495 6.57673 10.5849C6.31209 10.3203 5.88305 10.3203 5.61841 10.5849Z" fill="black"/>
<path d="M11.5282 7.78127C11.1651 7.61146 10.7487 7.65121 10.4245 7.88605L9.83375 8.21301C9.50588 8.39366 9.38756 8.80643 9.56911 9.1343C9.75066 9.46218 10.1643 9.57869 10.4895 9.39895L10.839 9.20566V12.8709C10.839 13.2449 11.1425 13.5484 11.5165 13.5484C11.8904 13.5484 12.1939 13.2449 12.1939 12.8709V8.85611C12.1939 8.38553 11.9392 7.97366 11.5282 7.78127Z" fill="black"/>
<path fill-rule="evenodd" clip-rule="evenodd" d="M9.03259 2.48387C9.03259 1.36387 9.94394 0.451613 11.0648 0.451613C12.1857 0.451613 13.0971 1.36297 13.0971 2.48387V2.93548C13.0971 3.34194 13.0962 3.67703 13.0817 3.96245C13.0158 5.264 11.9003 6.32258 10.5952 6.32258H10.1616C9.78768 6.32258 9.4842 6.0191 9.4842 5.64516C9.4842 5.27123 9.78768 4.96774 10.1616 4.96774H10.5952C10.9664 4.96774 11.2961 4.75819 11.5056 4.46464C11.3638 4.49626 11.2166 4.51613 11.0648 4.51613C9.94394 4.51613 9.03259 3.60387 9.03259 2.48387ZM11.0648 1.80645C10.6909 1.80645 10.3874 2.11084 10.3874 2.48387C10.3874 2.8569 10.6909 3.16129 11.0648 3.16129C11.4388 3.16129 11.7423 2.8569 11.7423 2.48387C11.7423 2.11084 11.4388 1.80645 11.0648 1.80645Z" fill="black"/>
</g>
</g>
</g>
<defs>
<clipPath id="clip0_156_4670">
<rect width="14" height="14" fill="white"/>
</clipPath>
</defs>
</svg>

<svg xmlns="http://www.w3.org/2000/svg" fill="none" viewBox="0 0 14 14"><g fill="#000" clip-path="url(#a)"><path d="m5.618 10.585-1.102 1.102V.677a.678.678 0 0 0-1.354 0v11.01L2.06 10.585a.678.678 0 0 0-.959.958l2.258 2.258a.68.68 0 0 0 .74.147.7.7 0 0 0 .22-.147l2.258-2.258a.678.678 0 1 0-.959-.958M11.528 7.781c-.363-.17-.78-.13-1.104.105l-.59.327a.677.677 0 1 0 .656 1.186l.349-.193v3.665a.678.678 0 0 0 1.355 0V8.856c0-.47-.255-.882-.666-1.075"/><path fill-rule="evenodd" d="M9.033 2.484c0-1.12.91-2.032 2.032-2.032 1.12 0 2.032.911 2.032 2.032v.451c0 .407 0 .742-.015 1.027-.066 1.302-1.182 2.36-2.487 2.36h-.433a.678.678 0 0 1 0-1.354h.433c.371 0 .701-.21.91-.503a2 2 0 0 1-.44.051 2.035 2.035 0 0 1-2.032-2.032m2.032-.678a.678.678 0 1 0 .002 1.357.678.678 0 0 0-.002-1.357" clip-rule="evenodd"/></g><defs><clipPath id="a"><path fill="#fff" d="M0 0h14v14H0z"/></clipPath></defs></svg>
